X:0602
T:Lady Baird's Strathspey.
N:last bar |{c}BA/G/ {B}AG/F/ G2-G2:| in the book
M:C|
L:1/8
Q:1/4=120
I: :: :|
Z:Jack Campin * www.campin.me.uk * 2009
K:G
 g|d<(BTB>)A G>AGD|E>GD>G E>GD>g|d<(BTB>)A G>FGA |   B<dd>^c        d3:|
=f|e<cTc>A  TB>cdB|c<AA>F G>ABD |E>GD>G    E>GD>c|{c}BA/G/ {B}AG/F/ G3:|

